elide/concept/src/socialMedia/facebook-grey.svg

<svg clip-rule="evenodd" fill-rule="evenodd" stroke-linejoin="round" stroke-miterlimit="2" viewBox="0 0 417 417" xmlns="http://www.w3.org/2000/svg"><path d="m1024 512c0-282.77-229.23-512-512-512s-512 229.23-512 512c0 255.554 187.231 467.37 432 505.78v-357.78h-130v-148h130v-112.8c0-128.32 76.438-199.2 193.39-199.2 56.017 0 114.61 10 114.61 10v126h-64.562c-63.603 0-83.438 39.467-83.438 79.957v96.043h142l-22.7 148h-119.3v357.78c244.769-38.41 432-250.226 432-505.78z" fill="#7a7a8d" fill-rule="nonzero" transform="matrix(.3479 0 0 .3479 30.2083 31.2903)"/></svg>

<?xml version="1.0" encoding="UTF-8" standalone="no"?>
<!DOCTYPE svg PUBLIC "-//W3C//DTD SVG 1.1//EN" "http://www.w3.org/Graphics/SVG/1.1/DTD/svg11.dtd">
<svg width="100%" height="100%" viewBox="0 0 417 417" version="1.1" xmlns="http://www.w3.org/2000/svg" xmlns:xlink="http://www.w3.org/1999/xlink" xml:space="preserve" xmlns:serif="http://www.serif.com/" style="fill-rule:evenodd;clip-rule:evenodd;stroke-linejoin:round;stroke-miterlimit:2;">
    <g transform="matrix(0.3479,0,0,0.3479,30.2083,31.2903)">
        <path d="M1024,512C1024,229.23 794.77,0 512,0C229.23,0 0,229.23 0,512C0,767.554 187.231,979.37 432,1017.78L432,660L302,660L302,512L432,512L432,399.2C432,270.88 508.438,200 625.39,200C681.407,200 740,210 740,210L740,336L675.438,336C611.835,336 592,375.467 592,415.957L592,512L734,512L711.3,660L592,660L592,1017.78C836.769,979.37 1024,767.554 1024,512Z" style="fill:rgb(122,122,141);fill-rule:nonzero;"/>
    </g>
</svg>
